X:1350
T:Devil Stick the Minister
M:4/4
O:Shetland
R:Reel
Z:Richard Robinson 
%%TUNEURL: http://www.leeds.ac.uk/music/Info/RRTuneBk/gettune/00000945.html
%%ID:00000945
K:A mixolydian
Ad fd e<e ce | fd fd g2 eg | \
fd fd e<e ce | d2 ed cA A2 :|
|:fgaf ga gf | e=c gc ec gc |\
fgaf gece | d2 ed cA A2 :|
